flaticon/arrows/transfer-3.svg

<svg xmlns="http://www.w3.org/2000/svg" width="32" height="32" viewBox="0 0 24 24">
    <path d="M5.171875 0C3.574219 0 2.277344 1.300781 2.277344 2.898438 2.277344 4.492188 3.574219 5.792969 5.171875 5.792969 6.769531 5.792969 8.070312 4.492188 8.070312 2.898438 8.070312 1.300781 6.769531 0 5.171875 0zM5.171875 4.964844C4.03125 4.964844 3.101562 4.039062 3.101562 2.898438 3.101562 1.753906 4.03125.828125 5.171875.828125 6.3125.828125 7.242188 1.753906 7.242188 2.898438 7.242188 4.039062 6.3125 4.964844 5.171875 4.964844zM7.363281 11.464844C7.441406 11.546875 7.550781 11.585938 7.65625 11.585938 7.761719 11.585938 7.867188 11.546875 7.949219 11.464844 8.109375 11.304688 8.109375 11.042969 7.949219 10.878906L5.464844 8.398438C5.304688 8.234375 5.042969 8.234375 4.878906 8.398438L2.398438 10.878906C2.234375 11.042969 2.234375 11.304688 2.398438 11.464844 2.476562 11.546875 2.582031 11.585938 2.691406 11.585938 2.796875 11.585938 2.902344 11.546875 2.980469 11.464844L4.757812 9.6875 4.757812 18.238281C3.355469 18.441406 2.277344 19.648438 2.277344 21.101562 2.277344 22.699219 3.574219 24 5.171875 24 6.769531 24 8.070312 22.699219 8.070312 21.101562 8.070312 19.648438 6.988281 18.441406 5.585938 18.238281L5.585938 9.6875zM7.242188 21.101562C7.242188 22.246094 6.3125 23.171875 5.171875 23.171875 4.03125 23.171875 3.101562 22.246094 3.101562 21.101562 3.101562 19.960938 4.03125 19.035156 5.171875 19.035156 6.3125 19.035156 7.242188 19.960938 7.242188 21.101562zM19.242188 18.238281L19.242188 6.941406C19.242188 4.484375 17.242188 2.484375 14.78125 2.484375L11.550781 2.484375 13.328125.707031C13.488281.542969 13.488281.28125 13.328125.121094 13.164062-.0390625 12.902344-.0390625 12.742188.121094L10.257812 2.605469C10.222656 2.640625 10.191406 2.6875 10.167969 2.738281 10.128906 2.839844 10.128906 2.953125 10.167969 3.054688 10.191406 3.105469 10.222656 3.152344 10.257812 3.191406L12.742188 5.671875C12.824219 5.753906 12.929688 5.792969 13.035156 5.792969 13.140625 5.792969 13.246094 5.753906 13.328125 5.671875 13.488281 5.511719 13.488281 5.25 13.328125 5.085938L11.550781 3.308594 14.78125 3.308594C16.785156 3.308594 18.414062 4.9375 18.414062 6.941406L18.414062 18.238281C17.011719 18.441406 15.929688 19.648438 15.929688 21.101562 15.929688 22.699219 17.230469 24 18.828125 24 20.425781 24 21.722656 22.699219 21.722656 21.101562 21.722656 19.648438 20.644531 18.441406 19.242188 18.238281zM18.828125 23.171875C17.6875 23.171875 16.757812 22.246094 16.757812 21.101562 16.757812 19.960938 17.6875 19.035156 18.828125 19.035156 19.96875 19.035156 20.898438 19.960938 20.898438 21.101562 20.898438 22.246094 19.96875 23.171875 18.828125 23.171875zM18.828125 23.171875"/>
</svg>

<svg xmlns="http://www.w3.org/2000/svg" width="32" height="32" viewBox="0 0 24 24">
    <path d="M5.172 0a2.9 2.9 0 0 0-2.895 2.898 2.898 2.898 0 0 0 2.895 2.895c1.598 0 2.898-1.3 2.898-2.895C8.07 1.301 6.77 0 5.172 0zm0 4.965a2.07 2.07 0 0 1-2.07-2.067 2.071 2.071 0 0 1 4.14 0 2.07 2.07 0 0 1-2.07 2.067zm0 0M7.363 11.465a.404.404 0 0 0 .293.12.41.41 0 0 0 .293-.12.417.417 0 0 0 0-.586l-2.484-2.48a.41.41 0 0 0-.586 0l-2.48 2.48a.41.41 0 0 0 0 .586.398.398 0 0 0 .292.12c.106 0 .211-.038.29-.12l1.777-1.777v8.55a2.899 2.899 0 0 0-2.48 2.864A2.9 2.9 0 0 0 5.171 24c1.598 0 2.898-1.3 2.898-2.898a2.902 2.902 0 0 0-2.484-2.864v-8.55zm-.12 9.637a2.071 2.071 0 0 1-4.141 0 2.07 2.07 0 0 1 4.14 0zm0 0M19.242 18.238V6.941c0-2.457-2-4.457-4.46-4.457H11.55L13.328.707a.417.417 0 0 0 0-.586.417.417 0 0 0-.586 0l-2.484 2.484a.467.467 0 0 0-.09.133.442.442 0 0 0 0 .317c.023.05.055.097.09.136l2.484 2.48a.41.41 0 0 0 .293.122.41.41 0 0 0 .293-.121.417.417 0 0 0 0-.586l-1.777-1.777h3.23a3.636 3.636 0 0 1 3.633 3.632v11.297a2.902 2.902 0 0 0-2.484 2.864c0 1.597 1.3 2.898 2.898 2.898a2.9 2.9 0 0 0 2.895-2.898 2.899 2.899 0 0 0-2.48-2.864zm-.414 4.934c-1.14 0-2.07-.926-2.07-2.07a2.07 2.07 0 0 1 4.14 0c0 1.144-.93 2.07-2.07 2.07zm0 0"/>
</svg>
